X: 736
T: Captain Byng
C: anon.
O: Ireland
B: Francis O'Neill: "The Dance Music of Ireland" (1907) no. 736
R: Reel
Z: Transcribed by Frank Nordberg - http://www.musicaviva.com
F: http://www.musicaviva.com/abc/tunes/ireland/oneill-1001/oneill-1001-073
6.abc
M: C
L: 1/8
K: G
d|gfgd BGG2|eaag fdef|gfgd BGGB|cAdB G2Gd|gfgd BGG2|eaag fdcA|Bdef gage|d
BAB G2G||
c|BGdG BGGB|cAeA cAAc|BGdG BGGB|cAdB G2GA|BGdG BGGB|cAeA cAAc|Bdef gage|d
BAB G2G|]
W:
W:
W: From Musica Viva - http://www.musicaviva.com
W: the Internet center for free sheet music downloads.


